Numix-GalliumOS/16/actions/package-installed-locked.svg

<?xml version="1.0" encoding="UTF-8" standalone="no"?>
<svg
   xmlns:dc="http://purl.org/dc/elements/1.1/"
   xmlns:cc="http://creativecommons.org/ns#"
   xmlns:rdf="http://www.w3.org/1999/02/22-rdf-syntax-ns#"
   xmlns:svg="http://www.w3.org/2000/svg"
   xmlns="http://www.w3.org/2000/svg"
   xmlns:sodipodi="http://sodipodi.sourceforge.net/DTD/sodipodi-0.dtd"
   xmlns:inkscape="http://www.inkscape.org/namespaces/inkscape"
   width="16"
   viewBox="0 0 16 16"
   height="16"
   id="svg2"
   version="1.1"
   inkscape:version="0.91 r"
   sodipodi:docname="package-available-locked.svg">
  <metadata
     id="metadata22">
    <rdf:RDF>
      <cc:Work
         rdf:about="">
        <dc:format>image/svg+xml</dc:format>
        <dc:type
           rdf:resource="http://purl.org/dc/dcmitype/StillImage" />
        <dc:title />
      </cc:Work>
    </rdf:RDF>
  </metadata>
  <defs
     id="defs20" />
  <sodipodi:namedview
     pagecolor="#ffffff"
     bordercolor="#666666"
     borderopacity="1"
     objecttolerance="10"
     gridtolerance="10"
     guidetolerance="10"
     inkscape:pageopacity="0"
     inkscape:pageshadow="2"
     inkscape:window-width="1366"
     inkscape:window-height="747"
     id="namedview18"
     showgrid="true"
     inkscape:zoom="14.75"
     inkscape:cx="-10.350504"
     inkscape:cy="10.121884"
     inkscape:window-x="0"
     inkscape:window-y="21"
     inkscape:window-maximized="1"
     inkscape:current-layer="svg2">
    <inkscape:grid
       type="xygrid"
       id="grid3018" />
  </sodipodi:namedview>
  <g
     transform="matrix(.42328 0 0 .42328 -2.53968 7.61905)"
     id="g4">
    <path
       style="fill:#c19553"
       d="M 8.3625,-18 C 7.3339285,-18 6,-16.666072 6,-15.6375 L 6,15.075 c 0,0.971429 1.3910714,2.3625 2.3625,2.3625 l 30.7125,0 c 0.971429,0 2.3625,-1.391071 2.3625,-2.3625 l 0,-30.7125 C 41.4375,-16.608929 40.046429,-18 39.075,-18 z"
       id="path6" />
  </g>
  <g
     style="fill:#fff"
     transform="matrix(.42328 0 0 .42328 -2.53968 -2.53968)"
     id="g8">
    <path
       style="fill-opacity:.196"
       d="M 8.3625,6 C 7.3339285,6 6,7.3339285 6,8.3625 l 0,9.45 c 3.9999999,0 31.4375,0 35.4375,0 l 0,-9.45 C 41.4375,7.3910714 40.046429,6 39.075,6 z"
       id="path10" />
    <path
       style="fill-opacity:.392"
       d="m 20.175,10.725 0,14.175 7.0875,0 0,-14.175 z"
       id="path12" />
  </g>
  <g
     id="g4152"
     transform="matrix(0.5,0,0,0.5,8.5,8)">
    <path
       id="path4142"
       d="m 8,0 c 0,0 5.000001,0.00885 5.005331,3.5469052 l 0,3.0548598 c 0,0 1.994669,0 1.994669,0.80258 l 0,7.32267 C 14.999921,15.400305 14.285378,15.99991 13.499999,16 L 2.499995,16 C 1.7146219,15.99991 1.000073,15.400305 1,14.727015 L 1,7.404345 C 1,6.601765 3.021647,6.595655 3.021647,6.595655 L 2.959147,3.5469052 C 2.999967,0.004695 8.000004,0 8,0 Z m 0,1.7758002 c 0,0 -3.000002,0 -3.000002,2.65666 l 0,2.1693048 6.000004,0 0,-2.1693048 C 11.000002,1.7758002 8,1.7758002 8,1.7758002 Z"
       style="color:#000000;line-height:normal;fill:#859900"
       inkscape:connector-curvature="0" />
    <path
       id="path4144"
       d="m 8,9 c -1.10457,0 -2,0.89543 -2,2 0,0.739604 0.403104,1.372707 1,1.71875 L 7,15 9,15 9,12.71875 C 9.596895,12.372707 10,11.739604 10,11 10,9.89543 9.104569,9 8,9 Z"
       style="fill-opacity:0.1;fill-rule:evenodd"
       inkscape:connector-curvature="0" />
  </g>
</svg>

<svg xmlns="http://www.w3.org/2000/svg" viewBox="0 0 16 16">
 <g transform="matrix(.42328 0 0 .42328 -2.53968 7.61905)">
  <path d="m 8.363 -18 c -1.029 0 -2.363 1.334 -2.363 2.363 l 0 30.713 c 0 0.971 1.391 2.363 2.363 2.363 l 30.713 0 c 0.971 0 2.362 -1.391 2.362 -2.363 l 0 -30.713 c 0 -0.971 -1.391 -2.363 -2.362 -2.363 z" style="fill:#c19553"/>
 </g>
 <g transform="matrix(.42328 0 0 .42328 -2.53968 -2.53968)" style="fill:#fff">
  <path d="m 8.363 6 c -1.029 0 -2.363 1.334 -2.363 2.363 l 0 9.45 c 4 0 31.438 0 35.438 0 l 0 -9.45 c 0 -0.971 -1.391 -2.363 -2.362 -2.363 z" style="fill-opacity:0.196"/>
  <path d="m 20.18 10.725 0 14.175 7.088 0 0 -14.175 z" style="fill-opacity:0.392"/>
 </g>
 <g transform="matrix(0.5,0,0,0.5,8.5,8)">
  <path d="m 8 0 c 0 0 5 0.009 5.01 3.547 l 0 3.055 c 0 0 1.995 0 1.995 0.803 l 0 7.323 c 0 0.673 -0.715 1.273 -1.5 1.273 l -11 0 c -0.785 0 -1.5 -0.6 -1.5 -1.273 l 0 -7.323 c 0 -0.803 2.02 -0.809 2.02 -0.809 l -0.063 -3.049 c 0.041 -3.542 5.04 -3.547 5.04 -3.547 m 0 1.776 c 0 0 -3 0 -3 2.657 l 0 2.169 6 0 0 -2.169 c 0 -2.657 -3 -2.657 -3 -2.657" style="fill:#859900;color:#000"/>
  <path d="m 8 9 c -1.105 0 -2 0.895 -2 2 0 0.74 0.403 1.373 1 1.719 l 0 2.281 2 0 0 -2.281 c 0.597 -0.346 1 -0.979 1 -1.719 0 -1.105 -0.895 -2 -2 -2" style="fill-opacity:0.1;fill-rule:evenodd"/>
 </g>
</svg>
